X:389
T:
R:polska
S:Efter kyrkoherde Joneson, Fardhem, som lemnat noter till melodien.
O:Gotland, Fardhem
M:3/4
L:1/16
K:Bb
f2|fbdf BdFB DECD|B,DFB ceAc B4|bgeg gfdB FedA|BABd cBAG F4|
BGDB, B,DFB Bdfb|gecA FAcf fbfd|e2ec d2dB c2cA|Fedc c4 B4::
f2cf g2cg bagf|c'2c'a bg=ec f4|fcfa gcgb bagf|c'4 c'bag fedc|
B4 dBdf edcB|c2cd e2ec BAGF|B4 dBdf edcB|c=Bcd edec dBdf|
g^fga g2E2D2C2|f=efg f2D2C2B,2|B,DCE DFEG FGAB|ceAc c4 B4:|

